X:6313
T:Strayaway Child, The
O:england
R:jig
C:Michael Gorman
S:Bothy Band
M:6/8
L:1/8
K:G
GA|BEE GEE|~E3 G2A|BEE A2G|FDF Adc|
BEE GEE|~E3 G2A|~B3 B2A|GEE E2:|
A|Bee BdB|dBG AGA|Bee BdB|dBG A3|
Bee BdB|dBG AGA|~B3 B2A|GEE E2z|
Bee BdB|dBG AGA|Bee BdB|dBG A3|
gfe dcB|AGA BGE|AGE DB,D|~E3 E2z||
EAG EDE|~G3 BAG|AGE DB,D|~E3 E2z|
EAG EDE|~G3 BAG|AGE DB,D|~E3 E2z:|
efe ded|cBA BGE|GAB dBB|AGE D2c|
BAG EDE|GAB cBA|BAG EGF|~E3 E2z:|
edB edB|AGA BGE|edB edB|AGA ~B3|
edB gfe|dcB AGA|BAG EGF|~E3 E2z:|


